X:6
T:Wassail Song 159
M:6/8
L:1/8
C:Traditional
S:The New Oxford Carol Book
K:D
||E|E2BB2|(G2F)E2D|(E2F)G2A|
(B3B2)E)(E2B)B2A|(G2F)E2D|(E2F)(G2A)|
(B3B2)E|(E2B)B2A|(G2F)E2D|(E2F)(G2A)|
B3||B2d|(d2BB2G|A3d2c|B2BE2F|
G3F2G|A3d2c|B3E2F|(A2G)E2E|(E3E2)||

